X: 100325
M: C|
L: 1/8
K: Gm
uf |\
dG(BG) (B/c/d)f2 | (cF)AF (A/B/c)e2 | dG(BG) (B/c/d)g2 |
(dg) (^f/g/a) g2g :| ua | bgdg dgbg | fdcf AFcA |
bgdg dgbg | dg (^f/g/a) g2ga | bgdb caBg |


